!!!!SEGMENT: pl-kk--kk-i-389--008-003_anonim--missa-no-8-gloria.krn
!!!cenid: 17xx:2508
!!!COM: Anonim
!!!COM-rismID: pe30004985
!!!CDT:
!!!CNT:
!!!OPR: [Missa] No. 8.
!!!OTL: Gloria
!!!OMV: 003
!!!PDT:
!!!AGN: Sacred; Mass
!!!YEC: Copyright 2022 Narodowy Instytut Fryderyka Chopina (https://polishscores.org)
!!!YEM: License CC-BY-4.0 (https://creativecommons.org/licenses/by/4.0)
!!!SMS-siglum: PL-Kk
!!!SMS-shelfmark: Kk.I.389
!!!SMS-variant:
!!!SMS-altvar:
!!!SMS-shelfwork: 008-003 M
!!!NIFC-rismSourceID: 1001146182
!!!NIFC-rismChildID: 1001147247
!!!NIFC-islandoraID: pl-kk:6976
!!!URL-pdf-islandora: https://repozytorium.nifc.pl/islandora/object/pl-kk%3A6976/datastream/PDF/view
!!!URL-scan: https://polish.musicsources.pl/pl/lokalizacje/galeria/rekopisy/5999/1 @EN{Scan on Polish Music Sources Website} @PL{Skany w portalu Dziedzictwo Muzyki Polskiej w otwartym dostępie}
!!!IIIF:
!!!ONB-nifc: UWAGA: S – skan 14-15 , A – 32-34, T – 51-53 , B – 70-71. Części Mszy: Rorate, Kyrie, Gloria, Graduale, Sanctus, Benedictus, Agnus, Dona.
!!!AIN: 1 alto 1 bass 1 soprn 1 tenor
!!!key: C
**kern	**text	**kern	**text	**kern	**text	**kern	**text
*part4	*part4	*part3	*part3	*part2	*part2	*part1	*part1
*staff4	*staff4	*staff3	*staff3	*staff2	*staff2	*staff1	*staff1
*I"Basso.	*	*I"Tenore.	*	*I"Alto.	*	*I"Soprano.	*
*I'B	*	*I'T	*	*I'A	*	*I'S	*
*ICvox	*	*ICvox	*	*ICvox	*	*ICvox	*
*Ibass	*	*Itenor	*	*Ialto	*	*Isoprn	*
*clefF4	*	*clefC4	*	*clefC3	*	*clefC1	*
*k[]	*	*k[]	*	*k[]	*	*k[]	*
*C:	*	*C:	*	*C:	*	*C:	*
*M3/2	*	*M3/2	*	*M3/2	*	*M3/2	*
=1	=1	=1	=1	=1	=1	=1	=1
*	*	*	*	*	*	*all\right:global	*
*2\right	*	*2\right	*	*2\right	*	*2\right	*
!LO:TX:t=P:problem:2\right:global	!	!LO:TX:t=P:problem:2\right:global	!	!LO:TX:t=P:problem:2\right:global	!	!LO:TX:t=P:problem:2\right:global	!
2c\	Et	2c\	Et	2e\	Et	2g\	Et
2E\	.	2e\	.	2g\	.	2cc\	.
2G\	in	2d\	in	2f\	in	2b\	in
=2	=2	=2	=2	=2	=2	=2	=2
2C/	ter-	1c	ter-	1e	ter-	1g	ter-
2E\	.	.	.	.	.	.	.
2G\	-ra	2B\	-ra	2d\	-ra	2g/	-ra
=3	=3	=3	=3	=3	=3	=3	=3
.	.	8qd/	.	.	.	.	.
2C/	pax	4c\	pax	4e\	pax	1g	pax
.	.	8B\L	.	8d\L	.	.	.
.	.	8c\J	.	8e\J	.	.	.
2BB/	.	2d\	.	2f\	.	.	.
2C/	ho-	2c\	ho-	2e\	ho-	2g/	ho-
=4	=4	=4	=4	=4	=4	=4	=4
2.G\	-mi-	2.B\	-mi-	2.d\	-mi-	2.g/	-mi-
4G\	-ni-	4B\	-ni-	4d\	-ni-	4g/	-ni-
2G\	-bus	2B\	-bus,	2d\	-bus,	2g/	-bus
=5	=5	=5	=5	=5	=5	=5	=5
1G	bo-	2B\	bo-	2d\	bo-	1g	bo-
.	.	2c\	.	2e\	.	.	.
2G\	-ne	2d\	-ne	2f\	-ne	2b\	-ne
!	!	!LO:LB:g=original	!	!	!	!	!
=6	=6	=6	=6	=6	=6	=6	=6
2C/	vo-	2c\	vo-	2e\	vo-	2g\	vo-
!	!	!	!	!LO:LB:g=original	!	!	!
2BB/	.	2f\	.	2a\	.	2cc\	.
2C/	-lun-	2e\	-lun-	2g\	-lun-	2cc\	-lun-
!LO:LB:g=original	!	!	!	!	!	!	!
=7	=7	=7	=7	=7	=7	=7	=7
2F\	-ta-	2d\	-ta-	2f\	-ta-	2a\	-ta-
2G\	.	2c\	.	2e\	.	1g	.
2GG/	.	2B\	.	2d\	.	.	.
!	!	!	!	!	!	!LO:LB:g=original	!
=8	=8	=8	=8	=8	=8	=8	=8
2C/	-tis,	2c\	-tis,	2e\	-tis,	2g\	-tis,
2r	.	2r	.	2r	.	2r	.
2r	.	4c\	lau-	4e\	lau-	2r	.
.	.	4d\	.	4f\	.	.	.
=9	=9	=9	=9	=9	=9	=9	=9
2C/	Lau-	1e	-da-	1g	-da-	2cc\	Lau-
2E\	-da-	.	.	.	.	2cc\	-da-
2G\	-mus	2d\	-mus	2f\	-mus	2b\	-mus
=10	=10	=10	=10	=10	=10	=10	=10
2C/	te	2c\	te,	2e\	te,	2g\	te
2r	.	2c\	be-	2e\	be-	2r	.
2r	.	4c\	.	4e\	.	2r	.
.	.	4d\	-ne-	4f\	-ne-	.	.
=11	=11	=11	=11	=11	=11	=11	=11
4C/	be-	1e	-di-	1g	-di-	4g\	be-
4C/	-ne-	.	.	.	.	4g\	-ne-
2E\	-di-	.	.	.	.	2cc\	-di-
4G\	-ci-	4d\	-ci-	4f\	-ci-	4b\	-ci-
4G\	-mus	4d\	-mus	4f\	-mus	4b\	-mus
!	!	!LO:LB:g=original	!	!	!	!	!
=12	=12	=12	=12	=12	=12	=12	=12
2C/	te,	2c\	te,	2e\	te,	2g\	te,
!	!	!	!	!LO:LB:g=original	!	!	!
2G\	a-	4B\	a-	4d\	a-	4dd\	a-
.	.	4d\	.	4f\	.	4b\	.
2G\	-do-	4c\	-do-	4e\	-do-	2cc\	-do-
.	.	4e\	.	4g\	.	.	.
=13	=13	=13	=13	=13	=13	=13	=13
2B\	-ra-	1d	-ra-	2g\	-ra-	1g	-ra-
2G\	.	.	.	2f\	.	.	.
2c\	-mus	2c\	-mus	2e\	-mus	2g\	-mus
!LO:LB:g=original	!	!	!	!	!	!	!
=14	=14	=14	=14	=14	=14	=14	=14
2G\	te,	2B\	te,	2d\	te	2g\	te
2r	.	2r	.	2r	.	2r	.
!	!	!	!	!	!	!LO:LB:g=original	!
2G\	glo-	2d\	glo-	2f\	glo-	2b\	glo-
=15	=15	=15	=15	=15	=15	=15	=15
2C/	-ri-	2e\	-ri-	2g\	-ri-	2g\	-ri-
2D/	.	2d\	.	2f\	.	2b\	.
2E/	-fi-	2c\	-fi-	2e\	-fi-	2g\	-fi-
=16	=16	=16	=16	=16	=16	=16	=16
2F\	-ca-	2d\	-ca-	2f\	-ca-	2b\	-ca-
2G\	.	2c\	.	2e\	.	2g\	.
2GG/	-mus	2B\	-mus	2d\	-mus	2g\	-mus
=17	=17	=17	=17	=17	=17	=17	=17
1C	te,	1c	te,	1e	te,	1g	te,
!	!	!	!	!	!	!LO:TX:t=P:problem:podwójna kreska taktowa	!
2r	.	2r	.	2r	.	2r	.
!	!	!	!	!LO:LB:g=original	!	!	!
=18	=18	=18	=18	=18	=18	=18||	=18
2.A\	Gra-	2.c\	gra-	2.e\	Gra-	2.cc\	Gra-
4B\	-ti-	4d\	-ti-	4e\	-ti-	4g#X\	-ti-
2c\	-as	2e\	-as	2e\	-as	2a\	-as
!	!	!LO:LB:g=original	!	!	!	!	!
=19	=19	=19	=19	=19	=19	=19	=19
2B\	a-	2d\	a-	2e\	a-	2g#X\	a-
2A\	-gi-	2c\	-gi-	2e\	-gi-	2a\	-gi-
2G#X\	-mus	2B\	-mus	2e\	-mus	2dd\	-mus,
=20	=20	=20	=20	=20	=20	=20	=20
2A\	ti-	1c	ti-	1e	ti-	2cc\	ti-
2Fn\	.	.	.	.	.	2a\	.
2D#X\	.	2A\	.	2f#X\	.	2cc\	.
!LO:LB:g=original	!	!	!	!	!	!	!
=21	=21	=21	=21	=21	=21	=21	=21
2E\	-bi,	2G/	-bi,	2e\	-bi	2b\	-bi,
2B\	prop-	2G/	prop-	2e\	prop-	2dd\	prop-
2G#X\	-ter	2G/	-ter	2e\	-ter	2b\	-ter
!	!	!	!	!	!	!LO:PB:g=original	!
=22	=22	=22	=22	=22	=22	=22	=22
2A\	ma-	2c\	ma-	1e	ma-	2cc\	ma-
2c\	.	2e\	.	.	.	2a\	.
2A\	-gnam	2c\	-gnam	2e\	-gnam	2cc\	-gnam
=23	=23	=23	=23	=23	=23	=23	=23
2.G#X\	glo-	2.d\	glo-	2.f\	glo-	2.b\	glo-
4G#\	-ri-	4d\	-ri-	4f\	-ri-	4b\	-ri-
2A\	-am	2c\	-am	2e\	-am	2a\	-am
=24	=24	=24	=24	=24	=24	=24	=24
2D\	tu-	2d\	tu-	2f\	tu-	2b\	tu-
1E	.	2c\	.	1e	.	2a\	.
.	.	2B\	.	.	.	2g#X\	.
!	!	!	!	!LO:LB:g=original	!	!	!
=25	=25	=25	=25	=25	=25	=25	=25
2AA/	-am,	2c\	-am,	2e\	-am,	2a\	-am,
2C/	Do-	2e\	Do-	2g\	Do-	2gn\	Do-
4BB/	-mi-	4d\	-mi-	4f\	-mi-	4g\	-mi-
4C/	-ne	4c\	-ne	4e\	-ne	4g\	-ne
!	!	!LO:LB:g=original	!	!	!	!	!
=26	=26	=26	=26	=26	=26	=26	=26
2G\	De-	2B\	De-	2d\	De-	2b\	De-
2GG/	-us	2B\	-us	2d\	-us	2dd\	-us
4G\	Rex	4B\	Rex	4d\	Rex	4dd\	Rex
4G\	ce-	4c\	ce-	4e\	ce-	4cc\	ce-
!LO:LB:g=original	!	!	!	!	!	!	!
=27	=27	=27	=27	=27	=27	=27	=27
2G\	-le-	2d\	-le-	2f\	-le-	2b\	-le-
2GG/	.	2B\	.	2d\	.	2g\	.
2C/	-stis	2c\	-stis,	2e\	-stis	2g\	-stis
=28	=28	=28	=28	=28	=28	=28	=28
2GG/	De-	2B\	De-	2d\	De-	2dd\	De-
2G\	.	2d\	.	2f\	.	2b\	.
2G\	-us	2c\	-us	2e\	-us	2g\	-us
!	!	!	!	!	!	!LO:LB:g=original	!
=29	=29	=29	=29	=29	=29	=29	=29
1G	Pa-	2B\	Pa-	2d\	Pa-	2g\	Pa-
.	.	2d\	.	2f\	.	2b\	.
2C/	-ter	2c\	-ter	2e\	-ter	2g\	-ter
=30	=30	=30	=30	=30	=30	=30	=30
2F\	om-	4A\	om-	4d\	om-	2a\	om-
.	.	4d\	.	4f\	.	.	.
!	!	!	!	!LO:LB:g=original	!	!	!
2G\	-ni-	2c\	-ni-	2e\	-ni-	2.g\	-ni-
2GG/	-po-	2B\	-po-	2d\	-po-	.	.
.	.	.	.	.	.	4g\	-po-
=31	=31	=31	=31	=31	=31	=31	=31
1C	-tens.	1c	-tens.	2e\	-tens	1g	-tens,
.	.	.	.	2r	.	.	.
2r	.	2r	.	2r	.	2r	.
!	!	!LO:LB:g=original	!	!	!	!	!
=32||	=32||	=32||	=32||	=32||	=32||	=32||	=32||
*M2/2	*	*M2/2	*	*M2/2	*	*M2/2	*
*met(C.)	*	*met(C.)	*	*met(C.)	*	*met(C.)	*
4.c\	Quo-	4.G/	Quo-	4.e\	Quo-	4.cc\	Quo-
8G\	-ni-	8B\	-ni-	8f\	-ni-	8dd\	-ni-
4E\	-am	4c\	-am	4g\	-am	4ee\	-am
4D\	tu	4B\	tu	4g\	tu	4ff\	tu
=33	=33	=33	=33	=33	=33	=33	=33
4C/	so-	8c\L	so-	8g\L	so-	8ee\L	so-
.	.	8B\J	.	8f\	.	8dd\	.
4GG/	.	8B\L	.	8f\	.	8dd\	.
.	.	8G\J	.	8e\J	.	8cc\J	.
4C/	-lus,	4G/	-lus,	4e\	-lus	4cc\	-lus,
4C/	tu	4c\	tu	4g\	tu	4ee\	tu
!LO:LB:g=original	!	!LO:LB:g=original	!	!	!	!	!
=34	=34	=34	=34	=34	=34	=34	=34
!	!	!LO:N:vis=1	!	!	!	!	!
2C/	so-	2c\	so-	4g\	so-	4ee\	so-
.	.	.	.	8a\L	.	8ff\L	.
.	.	.	.	8g\J	.	8ee\J	.
4F\	.	4A\	.	4f\	.	4dd\	.
4F#X\	-lus	4A\	-lus	4e\	-lus	4cc\	-lus
=35	=35	=35	=35	=35	=35	=35	=35
4G\	sanc-	4G/	san-	4e\	san-	4cc\	san-
4GG/	-tus,	4G/	-ctus	4d\	-ctus,	4b\	-ctus
!	!	!	!	!LO:LB:g=original	!	!LO:LB:g=original	!
4r	.	4r	.	4r	.	4r	.
4G\	tu	8B\L	tu	8d\L	tu	8dd\L	tu
.	.	8c\J	.	8e\J	.	8cc\J	.
=36	=36	=36	=36	=36	=36	=36	=36
4G\	so-	4d\	so-	4f\	so-	4b\	so-
4G\	-lus	4d\	-lus	4f\	-lus	4b\	-lus
4G\	Do-	8d\L	Do-	8f\L	Do-	4b\	Do-
.	.	8f\J	.	8a\J	.	.	.
4GG/	-mi-	8e\L	-mi-	8g\L	-mi-	4b\	-mi-
.	.	8d\J	.	8f\J	.	.	.
=37	=37	=37	=37	=37	=37	=37	=37
2C/	-nus,	2c\	-nus,	2e\	-nus,	2g\	-nus,
4r	.	4r	.	4r	.	4r	.
4C/	tu	4c\	tu	4e\	tu	4g\	tu
=38	=38	=38	=38	=38	=38	=38	=38
2G\	so-	4.B\	so-	4.d\	so-	2g\	so-
.	.	8c\	.	8e\	.	.	.
4G\	-lus	4d\	-lus	4f\	-lus	4b\	-lus
4G\	al-	4d\	al-	4f\	al-	4b\	al-
=39	=39	=39	=39	=39	=39	=39	=39
4c\	-tis-	8c\L	-tis-	8e\L	-tis-	8cc\L	-tis-
.	.	8d\J	.	8f\J	.	8b\J	.
4G\	-si-	8d\L	-si-	8f\L	-si-	8b\L	-si-
.	.	8e\J	.	8g\J	.	8cc\J	.
2C/	-mus	2e\	-mus	2g\	-mus	2cc\	-mus
!	!	!LO:LB:g=original	!	!	!	!	!
=40	=40	=40	=40	=40	=40	=40	=40
4F\	Je-	4f\	Je-	4.a\	Je-	4cc\	Je-
4F\	-su	8e\L	-su	.	.	4a\	-su
.	.	8d\J	.	16g\LL	-su	.	.
.	.	.	.	16f\JJ	.	.	.
4G\	Chri-	4c\	Chri-	4e\	Chri-	2g\	Chri-
4GG/	.	4B\	.	4d\	.	.	.
!	!	!	!	!LO:LB:g=original	!	!	!
=41	=41	=41	=41	=41	=41	=41	=41
2C/	-ste	2c\	-ste,	2e\	-ste,	2g\	-ste
!LO:LB:g=original	!	!	!	!	!	!	!
4r	.	4r	.	4r	.	4r	.
4C/	Cum	4e\	Cum	4g\	Cum	4cc\	cum
!	!	!	!	!	!	!LO:LB:g=original	!
=42	=42	=42	=42	=42	=42	=42	=42
4C/	san-	2e\	San-	2g\	San-	2cc\	San-
4E\	.	.	.	.	.	.	.
4G\	.	2d\	-cto	2f\	-cto	2b\	-cto
4GG/	-cto	.	.	.	.	.	.
=43	=43	=43	=43	=43	=43	=43	=43
4C/	spi-	4c\	spi-	4e\	Spi-	4g\	spi-
4C/	-ri-	4e\	-ri-	4g\	-ri-	4g\	-ri-
4BB/	-tu,	4d\	-tu	4f\	-tu	4g\	-tu
4C/	in	4c\	in	4e\	in	4g\	in
=44	=44	=44	=44	=44	=44	=44	=44
4GG/	glo-	4B\	glo-	4d\	glo-	4g\	glo-
8G\	-ri-	8B\	-ri-	8d\	-ri-	8g\	-ri-
8G\	-a	8c\	-a	8e\	-a	8g\	-a
4G\	De-	8e\L	De-	8g\L	De-	4g\	De-
.	.	8d\J	.	8f\J	.	.	.
4GG/	-i	8c\L	-i	8e\L	-i	4g\	-i
.	.	8B\J	.	8d\J	.	.	.
=45	=45	=45	=45	=45	=45	=45	=45
4C/	Pa-	4c\	Pa-	4e\	Pa-	2.g\	Pa-
4BB/	.	4d\	.	4f\	.	.	.
!	!	!LO:LB:g=original	!	!	!	!	!
.	.	8qf/	.	.	.	.	.
4C/	.	4e\	.	4g\	.	.	.
4F\	-tris	8d\L	tris	8f\L	tris	4g\	-tris
.	.	8c\J	.	8e\J	.	.	.
=46	=46	=46	=46	=46	=46	=46	=46
4G\	a-	4c\	a-	4e\	a-	4g\	a-
4GG/	-men	4B\	-men	4d\	-men,	4g\	-men
2r	.	2r	.	2r	.	2r	.
!	!	!	!	!LO:PB:g=original	!	!	!
=47	=47	=47	=47	=47	=47	=47	=47
1G	a-	4B\	a-	4d\	a-	2g\	De-
.	.	4c\	.	4e\	.	.	.
.	.	8qe/	.	8qg/	.	.	.
.	.	4d\	.	4f\	.	2b\	-i
.	.	8c\L	-men	8e\L	-men	.	.
.	.	8B\J	.	8d\J	.	.	.
=48	=48	=48	=48	=48	=48	=48	=48
4E\	.	4c\	a-	4e\	a-	4cc\	Pa-
4D\	.	4d\	.	4f\	.	4b\	.
!LO:LB:g=original	!	!	!	!	!	!	!
4C/	.	4e\	.	4g\	.	4g\	.
4BB/	-men	4f\	-men	4a\	-men	4dd\	-tris
!	!	!	!	!	!	!LO:LB:g=original	!
=49	=49	=49	=49	=49	=49	=49	=49
4C\	a-	2e\	a-	2g\	a-	2cc\	a-
4E\	.	.	.	.	.	.	.
4G\	.	2d\	.	2f\	.	2b\	.
4GG/	.	.	.	.	.	.	.
=50	=50	=50	=50	=50	=50	=50	=50
2C/	-men	2c\	-men	2e\	-men	2g\	-men
2GG/ 2BB	a-	2d\	a-	2f\	a-	2g\	a-
=51	=51	=51	=51	=51	=51	=51	=51
1C	-men.	1c	-men.	1e	-men.	2g\	-men.
.	.	.	.	.	.	2r	.
==	==	==	==	==	==	==	==
*-	*-	*-	*-	*-	*-	*-	*-
!!!system-decoration: [(s1,s2,s3,s4)]
!!!ENC: Filip Voros
!!!END: 2023-11-10
!!!ENC: Leszek Kubiak
!!!END: 2024-01-17
